X: 30503
T: Olive O'Mahoney's
R: jig
M: 6/8
K: Bminor
F|:Bcd c2d|Bcd e2e|f2f efd|cfe dcd|
Bcd c2d|Bcd ~e3|~f3 efd|1 cBA B2d:|2 cBA B2d||
|:efe edc|efe edc|edc edc|cdc Bcd|
efe edc|efe edc|ded efd|1 cBA B2d:|2 cBA B2F||

